svg/400/outlined/settings_input_svideo-fill.svg

<svg xmlns="http://www.w3.org/2000/svg" width="48" height="48" viewBox="0 -960 960 960"><path d="M480-80q-84 0-157-31t-127-85q-54-54-85-127T80-480q0-83.728 31-156.864Q142-710 196-764t127-85q73-31 157-31 83.728 0 156.864 31Q710-818 764-764t85 127.136Q880-563.728 880-480q0 84-31 157t-85 127q-54 54-127.136 85T480-80ZM290.118-453Q311-453 325.5-467.618q14.5-14.617 14.5-35.5Q340-524 325.382-538.5q-14.617-14.5-35.5-14.5Q269-553 254.5-538.382q-14.5 14.617-14.5 35.5Q240-482 254.618-467.5q14.617 14.5 35.5 14.5Zm380 0Q691-453 705.5-467.618q14.5-14.617 14.5-35.5Q720-524 705.382-538.5q-14.617-14.5-35.5-14.5Q649-553 634.5-538.382q-14.5 14.617-14.5 35.5Q620-482 634.618-467.5q14.617 14.5 35.5 14.5Zm-317 197Q374-256 388.5-270.618q14.5-14.617 14.5-35.5Q403-327 388.382-341.5q-14.617-14.5-35.5-14.5Q332-356 317.5-341.382q-14.5 14.617-14.5 35.5Q303-285 317.618-270.5q14.617 14.5 35.5 14.5Zm253 0Q627-256 641.5-270.618q14.5-14.617 14.5-35.5Q656-327 641.382-341.5q-14.617-14.5-35.5-14.5Q585-356 570.5-341.382q-14.5 14.617-14.5 35.5Q556-285 570.618-270.5q14.617 14.5 35.5 14.5ZM416-620h127q20 0 35-15t15-35q0-20-15-38t-35-18H416q-20 0-35 18t-15 38q0 20 15 35t35 15Z"/></svg>

<svg xmlns="http://www.w3.org/2000/svg" width="48" height="48" viewBox="0 -960 960 960"><path d="M480-80q-84 0-157-31t-127-85q-54-54-85-127T80-480q0-83.73 31-156.86Q142-710 196-764t127-85q73-31 157-31 83.73 0 156.86 31Q710-818 764-764t85 127.14q31 73.13 31 156.86 0 84-31 157t-85 127q-54 54-127.14 85Q563.73-80 480-80ZM290.12-453q20.88 0 35.38-14.62 14.5-14.62 14.5-35.5 0-20.88-14.62-35.38-14.62-14.5-35.5-14.5-20.88 0-35.38 14.62-14.5 14.62-14.5 35.5 0 20.88 14.62 35.38 14.62 14.5 35.5 14.5Zm380 0q20.88 0 35.38-14.62 14.5-14.62 14.5-35.5 0-20.88-14.62-35.38-14.62-14.5-35.5-14.5-20.88 0-35.38 14.62-14.5 14.62-14.5 35.5 0 20.88 14.62 35.38 14.62 14.5 35.5 14.5Zm-317 197q20.88 0 35.38-14.62 14.5-14.62 14.5-35.5 0-20.88-14.62-35.38-14.62-14.5-35.5-14.5-20.88 0-35.38 14.62-14.5 14.62-14.5 35.5 0 20.88 14.62 35.38 14.62 14.5 35.5 14.5Zm253 0q20.88 0 35.38-14.62 14.5-14.62 14.5-35.5 0-20.88-14.62-35.38-14.62-14.5-35.5-14.5-20.88 0-35.38 14.62-14.5 14.62-14.5 35.5 0 20.88 14.62 35.38 14.62 14.5 35.5 14.5ZM416-620h127q20 0 35-15t15-35q0-20-15-38t-35-18H416q-20 0-35 18t-15 38q0 20 15 35t35 15Z"/></svg>
